X:1

T:Dever the Dancer

S:78 RPM recording by flute player John McKenna

Z:Transcribed by Frank Claudy

M:9/8

L:1/8

K:D

BEE BEF G2 A|BGE BAG FED|BEE BEF G2 A|

1 dcB ABG FED:|2 dcB ABG FGA||ded cAF ~G3|

Adc def gfe|fed cAF G2 A|1 Bdc ABG FGA:|2 Bdc ABG FED||

                                   

DEVERON REEL. Scottish, Reel. D Major. Standard. AABB’. Composed by Iain MacFadyen, producer of The White Heather Club for the BBC. Martin credits the tune to Neil Grant. Martin (Ceol na Fidhle), Vol.3, 1988; pg. 37. White Heather Collection, 1961. Tradition 2118, Jim MacLeod & His Band ‑ "Scottish Dances: Jigs, Waltzes and Reels" (1979). Jimmy Shand – “Guid Luck Go Wi’ Ye” (appears in “Mrs. Cholomdeley’s Reel”). Ian Powrie Band – “On Tour – Scotland 1960.”

                                   

DEVERONSIDE. Scottish, March (2/4 time). A Mixolydian. Standard. AABBCCDD’. Composed by Pipe Major J. Robertson. Martin (Ceol na Fidhle), vol. 4, 1991; pg. 40.

                       

DEVIL... See also "Deal...," "Deval...," "Deil..."

                                   

DEVIL AND HIS SISTER, THE. Irish, Double Jig. Ireland, County Donegal. Caoimhin Mac Aoidh  (1994) relates the story of a Donegal fiddler named Mooney who was in demand for house parties and other events in the northwestern part of the county. Mooney was an affable fellow who "while revelling in fiddle-playing was not the victim of any social excesses."  His wife, however, detested music and fiddle music in particular, as well as being a classic shrew who made Mooney's life miserable with her rants on his perceived shortcomings.  

                                   

DEVIL AMONG THE MANTUA-MAKERS. Scottish, Reel. A Major. Standard. AAB. "Named so, at the request of a Lady in (Elgin) Moray‑Shire" (Marshall). Mantuas were a woman’s loose gown, called a mantie or mantua in the 17th and 18th centuries from the French word manteau. Alternately, it referred to a mantle fashionable in the second and third decade of the 19th century, also for women, derived from the custom of wearing a “plaid."  However, since they were of open crochet or lace work, they didn't hide the face and thus were more stylish for dance assemblies.  A dictionary also equates the term ‘mantua-makers’ with dressmakers, and says a mantua is a “woman’s loose outer skirt.” Mantuas were manufactured as an Edinburgh  women’s cottage industry in small workshops or at home. Marshall, Fiddlecase Edition, 1978; 1822 Collection, pg. 19.

